!!!SOCIAL_FUNCTION:	songs of the buffalo society (dream societies)
!!!PDT:	1918

Specific Region: Dakotas, Minnesota, Montana, Nebraska
!!!REG: Dakotas and Montana
!!!LING_GROUP: Siouan
!!!LANG: Tone
!!!OTL@ENG: Against the Wind
!!!ONM: No. 99
**kern
*Imale
*clefF4
*k[f#c#g#d#a#]
*M2/4
*MM100
8.F#
16F#
8.F#
16f#
=2
8.f#
16f#
4f#
=3||
*M3/4
16f#
8.e
(12f#
12e)
12c#
4B
=4||
*M2/4
8B
8c#
16c#
8B
16c#
=5
(16c#
8.B)
8.B
16G#
=6||
*M3/4
4F#
8.F#
16F#
4F#
=7||
*M2/4
16B
16B
16B
16B
16B
8.G#
=8
8G#
8G#
4B
=9
16B
16B
16B
16B
16B
8.F#
=10
8F#
8F#
4F#
==
*-
!!!CNT: Native American -- Sioux
!!!MRD: 1911/07//-1914///
!!!OCL: Frances Densmore
!!!YOR1: Teton Sioux Music, Bulletin 61,
!!!YOR2: Bureau of American Ethnology, Smithsonian Institution
!!!PPR: Government Printing Office
!!!PPP: Washington, D.C.
!!!PDT: 1918///
!!!ENC: Craig Stuart Sapp
!!!END: 2002/03/25/
!!!EEV: 2002/03/31/
!!!AGN: Society Song/Song of the Buffalo Society
!!!MPN@@SIO: Chetang'-hota
!!!MPN@ENG: Gray Hawk
!!!TXO: Teton Sioux
!!!MLC: Standing Rock Reservation, South Dakota, United States of America
!!!ARL: 45.9/-100.7#
!!!catalog: Catalogue No. 556
!!!PPG: 290
!!!EFL: 99/245
!!!VTS: 966333142
